X:1
T:The Battle Of Waterloo
L:1/8
M:4/4
I:linebreak $
K:G
V:1 treble 
V:1
 A | D>D DE DCCD | F>G AF G2 (3ABc | d>c AG AGED | C>C CD C2 (3AGE |$ D>D DE DCCD | %6
 F>G AF G2 (3ABc | d>c AG AGEC | D4 D2 AB | d>c AG F>G AB |$ c>d cA c2 (3ABc | d>c AG AGED | %12
 C>C CD C2 (3AGE | D>D DE DCCD | F>G AF G2 (3ABc |$ d>c AG AGEC | D4 D4 || %17
